actions/16/run.svg

<?xml version="1.0" encoding="UTF-8" standalone="no"?>
<!-- Created with Inkscape (http://www.inkscape.org/) -->

<svg
   xmlns:dc="http://purl.org/dc/elements/1.1/"
   xmlns:cc="http://creativecommons.org/ns#"
   xmlns:rdf="http://www.w3.org/1999/02/22-rdf-syntax-ns#"
   xmlns:svg="http://www.w3.org/2000/svg"
   xmlns="http://www.w3.org/2000/svg"
   xmlns:sodipodi="http://sodipodi.sourceforge.net/DTD/sodipodi-0.dtd"
   xmlns:inkscape="http://www.inkscape.org/namespaces/inkscape"
   version="1.1"
   width="16"
   height="16"
   id="svg13094"
   inkscape:version="0.48.3.1 r9886"
   sodipodi:docname="run.svg"
   inkscape:export-filename="folder.png"
   inkscape:export-xdpi="90"
   inkscape:export-ydpi="90">
  <sodipodi:namedview
     pagecolor="#ffffff"
     bordercolor="#666666"
     borderopacity="1"
     objecttolerance="10"
     gridtolerance="10"
     guidetolerance="10"
     inkscape:pageopacity="0"
     inkscape:pageshadow="2"
     inkscape:window-width="1920"
     inkscape:window-height="1032"
     id="namedview6"
     showgrid="true"
     inkscape:snap-bbox="true"
     inkscape:bbox-paths="true"
     inkscape:bbox-nodes="true"
     inkscape:snap-bbox-edge-midpoints="true"
     inkscape:snap-bbox-midpoints="true"
     inkscape:object-paths="true"
     inkscape:snap-intersection-paths="true"
     inkscape:object-nodes="true"
     inkscape:snap-smooth-nodes="true"
     inkscape:snap-midpoints="true"
     inkscape:snap-object-midpoints="true"
     inkscape:snap-center="true"
     inkscape:zoom="41.7193"
     inkscape:cx="3.5546703"
     inkscape:cy="7.9298206"
     inkscape:window-x="-7"
     inkscape:window-y="25"
     inkscape:window-maximized="1"
     inkscape:current-layer="svg13094"
     inkscape:snap-global="false">
    <inkscape:grid
       type="xygrid"
       id="grid2983" />
  </sodipodi:namedview>
  <defs
     id="defs7">
    <inkscape:path-effect
       effect="spiro"
       id="path-effect2985"
       is_visible="true" />
  </defs>
  <metadata
     id="metadata13099">
    <rdf:RDF>
      <cc:Work
         rdf:about="">
        <dc:format>image/svg+xml</dc:format>
        <dc:type
           rdf:resource="http://purl.org/dc/dcmitype/StillImage" />
        <dc:title />
      </cc:Work>
    </rdf:RDF>
  </metadata>
  <path
     sodipodi:nodetypes="sssssssssccccccccc"
     inkscape:connector-curvature="0"
     id="path2984"
     d="M 2,1 C 1.446,1 1,1.446 1,2 l 0,12 c 0,0.554 0.446,1 1,1 l 12,0 c 0.554,0 1,-0.446 1,-1 L 15,2 C 15,1.446 14.554,1 14,1 z m 4.9814619,3.28125 3,3 L 10.668962,8 9.9814619,8.71875 l -3,3 -1.4375,-1.4375 L 7.8252119,8 5.5439619,5.71875 z"
     style="color:#000000;fill:#27303a;fill-opacity:0.753280819999999968;fill-rule:nonzero;stroke:none;stroke-width:2;marker:none;visibility:visible;display:inline;overflow:visible;enable-background:accumulate" />
  <path
     style="font-size:medium;font-style:normal;font-variant:normal;font-weight:normal;font-stretch:normal;text-indent:0;text-align:start;text-decoration:none;line-height:normal;letter-spacing:normal;word-spacing:normal;text-transform:none;direction:ltr;block-progression:tb;writing-mode:lr-tb;text-anchor:start;baseline-shift:baseline;color:#000000;fill:#f1f3f5;fill-opacity:0.90288714000000003;fill-rule:nonzero;stroke:none;stroke-width:2;marker:none;visibility:visible;display:inline;overflow:visible;enable-background:accumulate;font-family:Sans;-inkscape-font-specification:Sans"
     d="M 2,0 C 0.90929723,0 0,0.90929723 0,2 l 0,12 c 0,1.090703 0.90929723,2 2,2 l 12,0 c 1.090703,0 2,-0.909297 2,-2 L 16,2 C 16,0.90929723 15.090703,0 14,0 z m 0,1 12,0 c 0.554,0 1,0.446 1,1 l 0,12 c 0,0.554 -0.446,1 -1,1 L 2,15 C 1.446,15 1,14.554 1,14 L 1,2 C 1,1.446 1.446,1 2,1 z M 6.71875,4.53125 5.78125,5.46875 8.3125,8 l -2.53125,2.53125 0.9375,0.9375 2.75,-2.75 L 10.15625,8 9.46875,7.28125 z"
     id="rect3774"
     inkscape:connector-curvature="0"
     sodipodi:nodetypes="ssssssssssssssssssccccccccc" />
</svg>

<?xml version="1.0" encoding="UTF-8"?>
<svg id="a" width="16" height="16" version="1.1" xmlns="http://www.w3.org/2000/svg" xmlns:cc="http://creativecommons.org/ns#" xmlns:dc="http://purl.org/dc/elements/1.1/" xmlns:rdf="http://www.w3.org/1999/02/22-rdf-syntax-ns#">
	<metadata id="c">
		<rdf:RDF>
			<cc:Work rdf:about="">
				<dc:format>image/svg+xml</dc:format>
				<dc:type rdf:resource="http://purl.org/dc/dcmitype/StillImage"/>
				<dc:title/>
			</cc:Work>
		</rdf:RDF>
	</metadata>
	<defs>
		<style id="current-color-scheme" type="text/css">.ColorScheme-Text {color:#090d11;}.ColorScheme-Background{color:#ffffff;}</style>
	</defs>
	<path id="b" d="m2 1c-0.554 0-1 0.446-1 1v12c0 0.554 0.446 1 1 1h12c0.554 0 1-0.446 1-1v-12c0-0.554-0.446-1-1-1zm4.9815 3.2812 3 3l0.6875 0.71875-0.6875 0.71875-3 3-1.4375-1.4375 2.2812-2.2812-2.2812-2.2812z" style="fill-opacity:.75;fill:currentColor" class="ColorScheme-Text"/>
	<path id="d" d="m2 0c-1.0907 0-2 0.9093-2 2v12c0 1.0907 0.9093 2 2 2h12c1.0907 0 2-0.9093 2-2v-12c0-1.0907-0.9093-2-2-2zm0 1h12c0.554 0 1 0.446 1 1v12c0 0.554-0.446 1-1 1h-12c-0.554 0-1-0.446-1-1v-12c0-0.554 0.446-1 1-1zm4.7188 3.5312-0.9375 0.9375 2.5312 2.5312l-2.5312 2.5312 0.9375 0.9375 2.75-2.75 0.6875-0.71875-0.6875-0.71875z" style="fill-opacity:.5;fill:currentColor" class="ColorScheme-Background"/>
</svg>
